X:0586
M:C
L:1/8
Q:1/4=120
K:G
g>ag>d e2-eg |d>gB>g   d>gB>g|(b/a/g/f/ g>)d e2 e>g      |d<Bg>B    B<AA>B |
g>ag>d e2-e>g|d>gB>g   d>gB>g|(b/a/g/f/ g>)d e2(e/g/f/g/)|d<Bg>B    B<AA>B|]

